X: 31
T:White Cockade,The. WM.031
M:4/4
L:1/4
Q:120
S:Wm.Mittell's MS,New Romney,Kent,1799
R:Scots Measure
O:England
A:Kent
N:Key signature of D maj in MS,presumed error
Z:vmp.Chris Partington
K:G
""G/A/|BBc/B/A/G/|Bdde|dBc/B/A/G/|FAAG/A/|!
BBc/B/A/G/|Bdg>a|b/a/g/f/ e/f/g/e/|dBB:|!
|:B/c/|dBgB|dBBB/c/|dBgB|aAAG/-A/|!
BBc/B/A/G/|Bdg>a|b/a/g/f/ e/f/g/e/|dBB:||
W:Key sig of D in MS,presumed error. ||
